src/assets/icons/primeng.svg

<svg xmlns="http://www.w3.org/2000/svg" width="57" height="61" viewBox="0 0 57 61" fill="none">
<path d="M28.3 0L0.072876 10.0264L4.3782 47.2026L28.3 60.4L52.2218 47.2026L56.5271 10.0264L28.3 0Z" fill="#DD0031"/>
<mask id="mask0" mask-type="alpha" maskUnits="userSpaceOnUse" x="0" y="0" width="57" height="61">
<path d="M28.3 0L0.072876 10.0264L4.3782 47.2026L28.3 60.4L52.2218 47.2026L56.5271 10.0264L28.3 0Z" fill="white"/>
</mask>
<g mask="url(#mask0)">
<path fill-rule="evenodd" clip-rule="evenodd" d="M28.3 0V6.7044V6.6742V37.2668V60.4L52.2218 47.2026L56.5271 10.0264L28.3 0Z" fill="#C3002F"/>
</g>
<path d="M36.5739 28.6458L33.8661 28.0443L35.9722 31.0519V40.3756L43.193 34.3603V24.1344L39.8835 25.3374L36.5739 28.6458Z" fill="white"/>
<path d="M19.7252 28.6458L22.433 28.0443L20.327 31.0519V40.3756L13.1061 34.3603V24.1344L16.4157 25.3374L19.7252 28.6458Z" fill="white"/>
<path fill-rule="evenodd" clip-rule="evenodd" d="M21.2 31.6164L23.6 28L25.1 28.9041H31.1L32.6 28L35 31.6164V45.1781L33.2 47.8904L31.1 50H25.1L23 47.8904L21.2 45.1781V31.6164Z" fill="white"/>
<path d="M35.9722 46.0901L39.8835 42.1802V38.2702L35.9722 41.5786V46.0901Z" fill="white"/>
<path d="M20.327 46.0901L16.4157 42.1802V38.2702L20.327 41.5786V46.0901Z" fill="white"/>
<path fill-rule="evenodd" clip-rule="evenodd" d="M24.2383 10.6L21.8313 16.3145L25.7426 27.7435H27.5478V10.6H24.2383ZM28.7513 10.6V27.7435H30.8574L34.4678 16.3145L32.0609 10.6H28.7513Z" fill="white"/>
<path d="M25.7426 27.7435L12.8052 22.9313L11 15.4122L22.1322 16.3145L26.0435 27.7435H25.7426Z" fill="white"/>
<path d="M30.8574 27.7435L43.7948 22.9313L45.6 15.4122L34.1669 16.3145L30.5565 27.7435H30.8574Z" fill="white"/>
<path d="M35.0696 15.4122L41.3878 14.8107L37.1757 10.6H32.9635L35.0696 15.4122Z" fill="white"/>
<path d="M21.2295 15.4122L14.9113 14.8107L19.1235 10.6H23.3356L21.2295 15.4122Z" fill="white"/>
</svg>

<svg xmlns="http://www.w3.org/2000/svg" width="57" height="61" fill="none"><path d="M28.3 0 .073 10.026l4.305 37.177L28.3 60.4l23.922-13.197 4.305-37.177L28.3 0z" fill="#DD0031"/><mask id="a" mask-type="alpha" maskUnits="userSpaceOnUse" x="0" y="0" width="57" height="61"><path d="M28.3 0 .073 10.026l4.305 37.177L28.3 60.4l23.922-13.197 4.305-37.177L28.3 0z" fill="#fff"/></mask><g mask="url(#a)"><path fill-rule="evenodd" clip-rule="evenodd" d="M28.3 0v6.704-.03V60.4l23.922-13.197 4.305-37.177L28.3 0z" fill="#C3002F"/></g><path d="m36.574 28.646-2.708-.602 2.106 3.008v9.324l7.221-6.016V24.134l-3.31 1.203-3.31 3.309zM19.725 28.646l2.708-.602-2.106 3.008v9.324l-7.22-6.016V24.134l3.309 1.203 3.31 3.309z" fill="#fff"/><path fill-rule="evenodd" clip-rule="evenodd" d="M21.2 31.616 23.6 28l1.5.904h6L32.6 28l2.4 3.616v13.562l-1.8 2.712L31.1 50h-6L23 47.89l-1.8-2.712V31.616z" fill="#fff"/><path d="m35.972 46.09 3.911-3.91v-3.91l-3.91 3.309v4.511zM20.327 46.09l-3.911-3.91v-3.91l3.911 3.309v4.511z" fill="#fff"/><path fill-rule="evenodd" clip-rule="evenodd" d="m24.238 10.6-2.407 5.714 3.912 11.43h1.805V10.6h-3.31zm4.513 0v17.144h2.106l3.61-11.43-2.406-5.714h-3.31z" fill="#fff"/><path d="M25.743 27.744 12.805 22.93 11 15.412l11.132.902 3.912 11.43h-.301zM30.857 27.744l12.938-4.813 1.805-7.519-11.433.902-3.61 11.43h.3zM35.07 15.412l6.318-.601-4.212-4.211h-4.212l2.106 4.812zM21.23 15.412l-6.319-.601 4.213-4.211h4.212l-2.106 4.812z" fill="#fff"/></svg>
